icons/svg/shields/h_aeroway_gate_shield.svg

<?xml version="1.0" encoding="UTF-8" standalone="no"?>
<!-- Created with Inkscape (http://www.inkscape.org/) -->

<svg
   xmlns:dc="http://purl.org/dc/elements/1.1/"
   xmlns:cc="http://creativecommons.org/ns#"
   xmlns:rdf="http://www.w3.org/1999/02/22-rdf-syntax-ns#"
   xmlns:svg="http://www.w3.org/2000/svg"
   xmlns="http://www.w3.org/2000/svg"
   xmlns:sodipodi="http://sodipodi.sourceforge.net/DTD/sodipodi-0.dtd"
   xmlns:inkscape="http://www.inkscape.org/namespaces/inkscape"
   version="1.0"
   width="16"
   height="16"
   id="svg2"
   sodipodi:version="0.32"
   inkscape:version="0.91 r13725"
   sodipodi:docname="h_aeroway_gate_shield.svg"
   inkscape:output_extension="org.inkscape.output.svg.inkscape">
  <defs
     id="defs22">
    <inkscape:perspective
       sodipodi:type="inkscape:persp3d"
       inkscape:vp_x="0 : 290 : 1"
       inkscape:vp_y="0 : 1000 : 0"
       inkscape:vp_z="580 : 290 : 1"
       inkscape:persp3d-origin="290 : 193.33333 : 1"
       id="perspective24" />
    <marker
       viewBox="0 0 10 10"
       refY="5"
       refX="10"
       orient="auto"
       markerWidth="4"
       markerUnits="strokeWidth"
       markerHeight="3"
       id="ArrowStart">
      <path
         id="path3568"
         d="M 10,0 0,5 10,10 z"
         inkscape:connector-curvature="0" />
    </marker>
    <marker
       viewBox="0 0 10 10"
       refY="5"
       refX="0"
       orient="auto"
       markerWidth="4"
       markerUnits="strokeWidth"
       markerHeight="3"
       id="ArrowEnd">
      <path
         id="path3565"
         d="M 0,0 10,5 0,10 z"
         inkscape:connector-curvature="0" />
    </marker>
    <inkscape:perspective
       id="perspective2683"
       inkscape:persp3d-origin="306.082 : 204.39034 : 1"
       inkscape:vp_z="612.164 : 306.58551 : 1"
       inkscape:vp_y="0 : 1000 : 0"
       inkscape:vp_x="0 : 306.58551 : 1"
       sodipodi:type="inkscape:persp3d" />
    <marker
       viewBox="0 0 10 10"
       refY="5"
       refX="10"
       orient="auto"
       markerWidth="4"
       markerUnits="strokeWidth"
       markerHeight="3"
       id="marker2959">
      <path
         id="path2626"
         d="M 10,0 0,5 10,10 z"
         inkscape:connector-curvature="0" />
    </marker>
    <marker
       viewBox="0 0 10 10"
       refY="5"
       refX="0"
       orient="auto"
       markerWidth="4"
       markerUnits="strokeWidth"
       markerHeight="3"
       id="marker2956">
      <path
         id="path2623"
         d="M 0,0 10,5 0,10 z"
         inkscape:connector-curvature="0" />
    </marker>
    <inkscape:perspective
       id="perspective2953"
       inkscape:persp3d-origin="306.082 : 204.39034 : 1"
       inkscape:vp_z="612.164 : 306.58551 : 1"
       inkscape:vp_y="0 : 1000 : 0"
       inkscape:vp_x="0 : 306.58551 : 1"
       sodipodi:type="inkscape:persp3d" />
    <marker
       viewBox="0 0 10 10"
       refY="5"
       refX="10"
       orient="auto"
       markerWidth="4"
       markerUnits="strokeWidth"
       markerHeight="3"
       id="marker3077">
      <path
         id="path3298"
         d="M 10,0 0,5 10,10 z"
         inkscape:connector-curvature="0" />
    </marker>
    <marker
       viewBox="0 0 10 10"
       refY="5"
       refX="0"
       orient="auto"
       markerWidth="4"
       markerUnits="strokeWidth"
       markerHeight="3"
       id="marker3074">
      <path
         id="path3295"
         d="M 0,0 10,5 0,10 z"
         inkscape:connector-curvature="0" />
    </marker>
    <inkscape:perspective
       id="perspective3071"
       inkscape:persp3d-origin="180.936 : 163.92867 : 1"
       inkscape:vp_z="361.87201 : 245.89301 : 1"
       inkscape:vp_y="0 : 1000 : 0"
       inkscape:vp_x="0 : 245.89301 : 1"
       sodipodi:type="inkscape:persp3d" />
    <inkscape:perspective
       id="perspective3724"
       inkscape:persp3d-origin="0.5 : 0.33333333 : 1"
       inkscape:vp_z="1 : 0.5 : 1"
       inkscape:vp_y="0 : 1000 : 0"
       inkscape:vp_x="0 : 0.5 : 1"
       sodipodi:type="inkscape:persp3d" />
    <inkscape:perspective
       id="perspective7956"
       inkscape:persp3d-origin="0.5 : 0.33333333 : 1"
       inkscape:vp_z="1 : 0.5 : 1"
       inkscape:vp_y="0 : 1000 : 0"
       inkscape:vp_x="0 : 0.5 : 1"
       sodipodi:type="inkscape:persp3d" />
    <inkscape:perspective
       id="perspective8355"
       inkscape:persp3d-origin="0.5 : 0.33333333 : 1"
       inkscape:vp_z="1 : 0.5 : 1"
       inkscape:vp_y="0 : 1000 : 0"
       inkscape:vp_x="0 : 0.5 : 1"
       sodipodi:type="inkscape:persp3d" />
  </defs>
  <metadata
     id="metadata10">
    <rdf:RDF>
      <cc:Work
         rdf:about="">
        <dc:format>image/svg+xml</dc:format>
        <dc:type
           rdf:resource="http://purl.org/dc/dcmitype/StillImage" />
        <cc:license
           rdf:resource="http://web.resource.org/cc/PublicDomain" />
        <dc:language>en</dc:language>
        <dc:title />
      </cc:Work>
    </rdf:RDF>
  </metadata>
  <sodipodi:namedview
     inkscape:window-height="1006"
     inkscape:window-width="1920"
     inkscape:pageshadow="2"
     inkscape:pageopacity="0.0"
     guidetolerance="10.0"
     gridtolerance="10.0"
     objecttolerance="10.0"
     borderopacity="1.0"
     bordercolor="#666666"
     pagecolor="#ffffff"
     id="base"
     showgrid="false"
     inkscape:zoom="22.627417"
     inkscape:cx="5.9629354"
     inkscape:cy="8.9190551"
     inkscape:window-x="1920"
     inkscape:window-y="0"
     inkscape:current-layer="svg2"
     inkscape:window-maximized="1" />
  <g
     id="g2319"
     transform="matrix(0.02364737,0,0,0.02364737,21.941724,2.0532759)">
    <path
       id="path2323"
       style="fill:#ffffff;stroke:none"
       d=""
       inkscape:connector-curvature="0" />
  </g>
  <g
     id="g2325"
     transform="matrix(0.02364737,0,0,0.02364737,21.941724,2.0532759)">
    <path
       id="path2329"
       style="fill:#ffffff;stroke:none"
       d=""
       inkscape:connector-curvature="0" />
  </g>
  <path
     style="opacity:0.79900004;fill:#ebe7e4;fill-opacity:1;stroke:none"
     d="m 13.602077,1.8108118 c -0.216818,0.00698 -0.441848,0.081708 -0.615969,0.21425 l -1.365844,1.0176875 -2.7584683,-1.07125 a 0.67042061,0.67042061 0 0 0 -0.64275,0.107125 L 7.6030769,2.5339055 a 0.67042061,0.67042061 0 0 0 0.026781,1.07125 L 9.3706394,4.8103118 9.1296082,4.9977805 8.6475457,4.8638743 A 0.67042061,0.67042061 0 0 0 8.0583582,4.9709993 L 7.5762957,5.3459368 A 0.67042061,0.67042061 0 0 0 7.3888269,5.6137493 c -0.042478,-2.226e-4 -0.089257,-2.678e-4 -0.080344,0 a 0.89605143,0.89605143 0 0 0 -0.026781,0 l -4.4456875,0 c 0.0061,3.707e-4 -0.027506,8.519e-4 -0.053562,0 0.00305,1.853e-4 -0.013751,3.642e-4 -0.026781,0 0.00306,0 -0.013753,-4.26e-4 -0.026781,0 0.00305,1.853e-4 -0.013751,3.642e-4 -0.026781,0 0.00306,0 -0.013753,-4.26e-4 -0.026781,0 -0.013028,4.26e-4 -0.013751,-3.642e-4 -0.026781,0 0.00306,0 -0.013753,-4.26e-4 -0.026781,0 -0.026056,8.519e-4 -0.059668,3.707e-4 -0.053562,0 a 0.89605143,0.89605143 0 0 0 -0.080344,0 0.89605143,0.89605143 0 0 0 -0.1606875,0.026781 c 0.011794,-0.00412 -0.1185393,0.058641 -0.107125,0.053562 0.011414,-0.00508 -0.1180817,0.059565 -0.107125,0.053562 0.010957,-0.006 -0.090768,0.060448 -0.080344,0.053563 0.010425,-0.00688 -0.090165,0.061284 -0.080344,0.053562 0.00982,-0.00772 -0.116276,0.088849 -0.107125,0.080344 0.00915,-0.00851 -0.061981,0.089574 -0.053563,0.080344 0.00842,-0.00923 -0.087972,0.090237 -0.080344,0.080344 0.00763,-0.00989 -0.087131,0.090832 -0.080344,0.080344 0.00679,-0.010489 -0.059461,0.1181377 -0.053562,0.107125 0.0059,-0.011012 -0.031752,0.1185866 -0.026781,0.107125 0.00497,-0.011462 -0.057571,0.1189574 -0.053562,0.107125 0.00401,-0.011832 -0.0298,0.1192477 -0.026781,0.107125 0.00302,-0.012122 -0.02879,0.1194554 -0.026781,0.107125 0.00201,-0.012331 -9.855e-4,0.1195791 0,0.107125 9.856e-4,-0.012454 -0.026736,0.1196179 -0.026781,0.107125 -4.48e-5,-0.012492 0.027856,0.1195717 0.026781,0.107125 l 0,6.5078435 0,0.02678 c 0.00136,0.03353 9.556e-4,0.119123 0,0.107125 -0.00119,-0.015 0.00268,0.148711 0,0.133906 -0.00268,-0.01481 0.030915,0.148372 0.026781,0.133906 -0.00413,-0.01447 0.059111,0.147891 0.053562,0.133906 -0.00555,-0.01399 0.060472,0.12049 0.053563,0.107125 -0.00691,-0.01336 0.088546,0.14652 0.080344,0.133907 -0.0082,-0.01262 0.089757,0.118861 0.080344,0.107125 -0.00941,-0.01174 0.090876,0.09109 0.080344,0.08034 -0.010532,-0.01075 0.09189,0.116771 0.080344,0.107125 -0.011547,-0.0097 0.1195718,0.0888 0.107125,0.08034 -0.012447,-0.0085 0.1471306,0.06074 0.1339062,0.05356 -0.013224,-0.0072 0.1209962,0.05939 0.107125,0.05356 -0.013871,-0.0058 0.1482873,0.05799 0.1339063,0.05356 -0.014381,-0.0045 0.1486551,0.02975 0.1339062,0.02678 -0.014749,-0.003 0.1488774,0.02827 0.1339063,0.02678 -0.014971,-0.0015 0.1489516,0 0.1339062,0 -0.015045,0 0.1220961,-0.0015 0.107125,0 -0.014971,0.0015 0.1486552,-0.02975 0.1339063,-0.02678 -0.014749,0.003 0.1482873,-0.0312 0.1339062,-0.02678 -0.014381,0.0045 0.1477775,-0.05939 0.1339063,-0.05356 -0.013871,0.0058 0.1203493,-0.06074 0.107125,-0.05356 -0.013224,0.0072 0.146353,-0.06201 0.1339062,-0.05356 -0.012447,0.0085 0.1186715,-0.08999 0.107125,-0.08034 -0.011546,0.0097 0.090876,-0.117869 0.080344,-0.107125 -0.010532,0.01075 0.089757,-0.09208 0.080344,-0.08034 -0.00414,0.0051 0.00806,-0.02762 0.026781,-0.05356 l 2.35675,0 c 0.023909,0.03296 0.058834,0.06014 0.053562,0.05356 -0.00941,-0.01174 0.090876,0.09109 0.080344,0.08034 -0.010532,-0.01075 0.09189,0.116771 0.080344,0.107125 -0.011546,-0.0097 0.1195718,0.0888 0.107125,0.08034 -0.012447,-0.0085 0.1471306,0.06074 0.1339062,0.05356 -0.013224,-0.0072 0.1209962,0.05939 0.107125,0.05356 -0.013871,-0.0058 0.1482873,0.05799 0.1339063,0.05356 -0.014381,-0.0045 0.1486551,0.02975 0.1339062,0.02678 -0.014749,-0.003 0.1488774,0.02827 0.1339063,0.02678 -0.014971,-0.0015 0.1221704,0 0.107125,0 -0.015045,0 0.1488773,-0.0015 0.1339062,0 -0.014971,0.0015 0.1486552,-0.02975 0.1339063,-0.02678 -0.014749,0.003 0.1482873,-0.0312 0.1339062,-0.02678 -0.014381,0.0045 0.1477775,-0.05939 0.1339063,-0.05356 -0.013871,0.0058 0.1203493,-0.06074 0.107125,-0.05356 -0.013224,0.0072 0.146353,-0.06201 0.1339062,-0.05356 -0.012447,0.0085 0.1186715,-0.08999 0.107125,-0.08034 -0.011546,0.0097 0.090876,-0.117869 0.080344,-0.107125 -0.010532,0.01075 0.089757,-0.09208 0.080344,-0.08034 -0.00941,0.01174 0.088546,-0.119739 0.080344,-0.107125 -0.0082,0.01262 0.087253,-0.147272 0.080344,-0.133907 -0.00691,0.01336 0.059112,-0.121109 0.053562,-0.107125 -0.00554,0.01399 0.057696,-0.148372 0.053562,-0.133906 -0.00413,0.01447 0.029458,-0.148712 0.026781,-0.133906 -0.00267,0.01481 0.00119,-0.148904 0,-0.133906 -9.513e-4,0.012 -0.00135,-0.07359 0,-0.107125 3.392e-4,-0.0084 -6.01e-5,-0.02979 0,-0.02678 l 0,-5.8650935 0.026781,0.053562 A 0.67042061,0.67042061 0 0 0 9.6384519,8.050843 L 10.120514,7.6759055 a 0.67042061,0.67042061 0 0 0 0.267813,-0.535625 l 0,-0.5088437 0.241031,-0.1874688 0.696313,2.0085938 a 0.67042061,0.67042061 0 0 0 1.017687,0.2945937 L 12.959327,8.2918743 A 0.67042061,0.67042061 0 0 0 13.227139,7.6759055 L 12.878983,4.7031868 14.244827,3.6854993 c 0.23068,-0.176051 0.377206,-0.4724003 0.401719,-0.749875 0.02453,-0.2776184 -0.06839,-0.5284402 -0.21425,-0.7230938 -0.145743,-0.1945043 -0.342899,-0.3471398 -0.615969,-0.4017187 -0.06827,-0.013645 -0.141978,-0.00233 -0.21425,0 z"
     id="path3835"
     inkscape:connector-curvature="0" />
</svg>

<svg width="16" height="16" viewBox="0 0 16 16" fill="none" xmlns="http://www.w3.org/2000/svg">
<path opacity="0.799" d="M13.6021 1.81082C13.3853 1.8178 13.1602 1.89252 12.9861 2.02507L11.6203 3.04275L8.8618 1.9715C8.75439 1.93323 8.639 1.92298 8.52653 1.94172C8.41406 1.96047 8.30823 2.00759 8.21905 2.07863L7.60308 2.53391C7.52161 2.59843 7.45625 2.68101 7.41218 2.77513C7.3681 2.86925 7.34651 2.97232 7.34911 3.07622C7.3517 3.18011 7.37842 3.28198 7.42714 3.37378C7.47587 3.46557 7.54527 3.54479 7.62986 3.60516L9.37064 4.81032L9.12961 4.99778L8.64755 4.86388C8.54775 4.83484 8.44258 4.82941 8.34033 4.848C8.23807 4.86659 8.14154 4.9087 8.05836 4.971L7.5763 5.34594C7.49267 5.41837 7.42826 5.51038 7.38883 5.61375C7.34635 5.61353 7.29957 5.61349 7.30848 5.61375C7.29956 5.61362 7.29063 5.61362 7.2817 5.61375H2.83601C2.84211 5.61412 2.80851 5.6146 2.78245 5.61375C2.7855 5.61394 2.7687 5.61412 2.75567 5.61375C2.75873 5.61375 2.74192 5.61333 2.72889 5.61375C2.73194 5.61394 2.71514 5.61412 2.70211 5.61375C2.70517 5.61375 2.68836 5.61333 2.67533 5.61375C2.6623 5.61418 2.66158 5.61339 2.64855 5.61375C2.65161 5.61375 2.63479 5.61333 2.62177 5.61375C2.59571 5.6146 2.5621 5.61412 2.5682 5.61375C2.54144 5.61255 2.51463 5.61255 2.48786 5.61375C2.4336 5.61778 2.37981 5.62675 2.32717 5.64053C2.33897 5.63641 2.20863 5.69917 2.22005 5.6941C2.23146 5.68902 2.10197 5.75366 2.11292 5.74766C2.12388 5.74166 2.02215 5.80811 2.03258 5.80122C2.043 5.79434 1.94241 5.86251 1.95223 5.85478C1.96205 5.84706 1.83596 5.94363 1.84511 5.93513C1.85426 5.92662 1.78313 6.0247 1.79155 6.01547C1.79997 6.00624 1.70357 6.10571 1.7112 6.09582C1.71883 6.08593 1.62407 6.18665 1.63086 6.17616C1.63765 6.16567 1.5714 6.2943 1.5773 6.28328C1.5832 6.27227 1.54554 6.40187 1.55052 6.39041C1.55549 6.37895 1.49294 6.50937 1.49695 6.49753C1.50096 6.4857 1.46715 6.61678 1.47017 6.60466C1.47319 6.59254 1.44138 6.72411 1.44339 6.71178C1.4454 6.69945 1.44241 6.83136 1.44339 6.81891C1.44438 6.80646 1.41666 6.93853 1.41661 6.92603C1.41657 6.91354 1.44447 7.04561 1.44339 7.03316V13.541V13.5678C1.44475 13.6013 1.44435 13.6869 1.44339 13.6749C1.4422 13.6599 1.44607 13.8236 1.44339 13.8088C1.44071 13.794 1.47431 13.9572 1.47017 13.9427C1.46604 13.9282 1.52928 14.0906 1.52373 14.0766C1.51818 14.0626 1.58421 14.1971 1.5773 14.1838C1.57039 14.1704 1.66584 14.3303 1.65764 14.3177C1.64944 14.305 1.7474 14.4365 1.73799 14.4248C1.72858 14.413 1.82886 14.5159 1.81833 14.5051C1.8078 14.4944 1.91022 14.6219 1.89867 14.6122C1.88713 14.6025 2.01825 14.701 2.0058 14.6926C1.99335 14.6841 2.15293 14.7533 2.13971 14.7461C2.12648 14.7389 2.2607 14.8055 2.24683 14.7997C2.23296 14.7939 2.39512 14.8577 2.38074 14.8533C2.36636 14.8488 2.52939 14.883 2.51464 14.88C2.49989 14.877 2.66352 14.9083 2.64855 14.9068C2.63358 14.9053 2.7975 14.9068 2.78245 14.9068C2.76741 14.9068 2.90455 14.9053 2.88958 14.9068C2.87461 14.9083 3.03824 14.8771 3.02349 14.88C3.00874 14.883 3.17177 14.8488 3.15739 14.8533C3.14301 14.8578 3.30517 14.7939 3.2913 14.7997C3.27743 14.8055 3.41165 14.739 3.39842 14.7461C3.3852 14.7533 3.54478 14.6841 3.53233 14.6926C3.51988 14.7011 3.651 14.6026 3.63945 14.6122C3.62791 14.6219 3.73033 14.4944 3.7198 14.5051C3.70927 14.5159 3.80956 14.413 3.80014 14.4248C3.796 14.4299 3.8082 14.3972 3.82692 14.3712H6.18367C6.20758 14.4042 6.24251 14.4314 6.23724 14.4248C6.22783 14.413 6.32811 14.5159 6.31758 14.5051C6.30705 14.4944 6.40947 14.6219 6.39792 14.6122C6.38638 14.6025 6.5175 14.701 6.50505 14.6926C6.4926 14.6841 6.65218 14.7533 6.63896 14.7461C6.62573 14.7389 6.75995 14.8055 6.74608 14.7997C6.73221 14.7939 6.89437 14.8577 6.87999 14.8533C6.86561 14.8488 7.02864 14.883 7.01389 14.88C6.99914 14.877 7.16277 14.9083 7.1478 14.9068C7.13283 14.9053 7.26997 14.9068 7.25492 14.9068C7.23988 14.9068 7.4038 14.9053 7.38883 14.9068C7.37386 14.9083 7.53749 14.8771 7.52274 14.88C7.50799 14.883 7.67102 14.8488 7.65664 14.8533C7.64226 14.8578 7.80442 14.7939 7.79055 14.7997C7.77668 14.8055 7.9109 14.739 7.89767 14.7461C7.88445 14.7533 8.04403 14.6841 8.03158 14.6926C8.01913 14.7011 8.15025 14.6026 8.13871 14.6122C8.12716 14.6219 8.22958 14.4944 8.21905 14.5051C8.20852 14.5159 8.30881 14.413 8.29939 14.4248C8.28998 14.4365 8.38794 14.305 8.37974 14.3177C8.37154 14.3303 8.46699 14.1704 8.46008 14.1838C8.45317 14.1971 8.51919 14.0626 8.51364 14.0766C8.5081 14.0906 8.57134 13.9283 8.56721 13.9427C8.56308 13.9572 8.59666 13.794 8.59399 13.8088C8.59132 13.8236 8.59518 13.6599 8.59399 13.6749C8.59304 13.6869 8.59264 13.6013 8.59399 13.5678C8.59433 13.5594 8.59393 13.538 8.59399 13.541V7.67591L8.62077 7.72947C8.65565 7.82672 8.71253 7.91459 8.78698 7.98623C8.86143 8.05787 8.95142 8.11133 9.04994 8.14244C9.14846 8.17355 9.25284 8.18147 9.35493 8.16558C9.45701 8.1497 9.55405 8.11043 9.63845 8.05085L10.1205 7.67591C10.2036 7.6135 10.2711 7.53262 10.3175 7.43966C10.364 7.3467 10.3883 7.24421 10.3883 7.14028V6.63144L10.6294 6.44397L11.3257 8.45257C11.3634 8.54759 11.4224 8.63273 11.4981 8.70146C11.5737 8.7702 11.6641 8.82071 11.7624 8.84914C11.8606 8.87757 11.964 8.88316 12.0647 8.86548C12.1654 8.84781 12.2607 8.80733 12.3434 8.74716L12.9593 8.29188C13.0542 8.22183 13.1289 8.128 13.1759 8.01985C13.223 7.9117 13.2406 7.79306 13.2271 7.67591L12.879 4.70319L14.2448 3.6855C14.4755 3.50945 14.622 3.2131 14.6465 2.93563C14.6711 2.65801 14.5782 2.40719 14.4323 2.21253C14.2866 2.01803 14.0894 1.86539 13.8163 1.81082C13.7481 1.79717 13.6743 1.80849 13.6021 1.81082V1.81082Z" fill="#EBE7E4"/>
</svg>
